src/assets/icons/menu.svg

<svg width="24" height="24" viewBox="0 0 24 24" fill="none" xmlns="http://www.w3.org/2000/svg">
<path d="M20.25 4.75C20.25 5.16421 20.5858 5.5 21 5.5C21.4142 5.5 21.75 5.16421 21.75 4.75H20.25ZM4 3.75H9.5V2.25H4V3.75ZM9.75 4V9.5H11.25V4H9.75ZM9.5 9.75H4V11.25H9.5V9.75ZM3.75 9.5V4H2.25V9.5H3.75ZM4 14.25H9.5V12.75H4V14.25ZM9.75 14.5V20H11.25V14.5H9.75ZM9.5 20.25H4V21.75H9.5V20.25ZM3.75 20V14.5H2.25V20H3.75ZM14.5 3.75H20V2.25H14.5V3.75ZM20 9.75H14.5V11.25H20V9.75ZM14.25 9.5V4H12.75V9.5H14.25ZM20.25 4V4.75H21.75V4H20.25ZM20.25 8.75V9.5H21.75V8.75H20.25ZM14.5 14.25H20V12.75H14.5V14.25ZM20.25 14.5V20H21.75V14.5H20.25ZM20 20.25H14.5V21.75H20V20.25ZM14.25 20V14.5H12.75V20H14.25ZM14.5 20.25C14.3619 20.25 14.25 20.1381 14.25 20H12.75C12.75 20.9665 13.5335 21.75 14.5 21.75V20.25ZM20.25 20C20.25 20.1381 20.1381 20.25 20 20.25V21.75C20.9665 21.75 21.75 20.9665 21.75 20H20.25ZM20 14.25C20.1381 14.25 20.25 14.3619 20.25 14.5H21.75C21.75 13.5335 20.9665 12.75 20 12.75V14.25ZM14.5 12.75C13.5335 12.75 12.75 13.5335 12.75 14.5H14.25C14.25 14.3619 14.3619 14.25 14.5 14.25V12.75ZM14.5 9.75C14.3619 9.75 14.25 9.63807 14.25 9.5H12.75C12.75 10.4665 13.5335 11.25 14.5 11.25V9.75ZM20 11.25C20.9665 11.25 21.75 10.4665 21.75 9.5H20.25C20.25 9.63807 20.1381 9.75 20 9.75V11.25ZM20 3.75C20.1381 3.75 20.25 3.86193 20.25 4H21.75C21.75 3.0335 20.9665 2.25 20 2.25V3.75ZM14.5 2.25C13.5335 2.25 12.75 3.0335 12.75 4H14.25C14.25 3.86193 14.3619 3.75 14.5 3.75V2.25ZM4 20.25C3.86193 20.25 3.75 20.1381 3.75 20H2.25C2.25 20.9665 3.0335 21.75 4 21.75V20.25ZM9.75 20C9.75 20.1381 9.63807 20.25 9.5 20.25V21.75C10.4665 21.75 11.25 20.9665 11.25 20H9.75ZM9.5 14.25C9.63807 14.25 9.75 14.3619 9.75 14.5H11.25C11.25 13.5335 10.4665 12.75 9.5 12.75V14.25ZM4 12.75C3.0335 12.75 2.25 13.5335 2.25 14.5H3.75C3.75 14.3619 3.86193 14.25 4 14.25V12.75ZM4 9.75C3.86193 9.75 3.75 9.63807 3.75 9.5H2.25C2.25 10.4665 3.0335 11.25 4 11.25V9.75ZM9.75 9.5C9.75 9.63807 9.63807 9.75 9.5 9.75V11.25C10.4665 11.25 11.25 10.4665 11.25 9.5H9.75ZM9.5 3.75C9.63807 3.75 9.75 3.86193 9.75 4H11.25C11.25 3.0335 10.4665 2.25 9.5 2.25V3.75ZM4 2.25C3.0335 2.25 2.25 3.0335 2.25 4H3.75C3.75 3.86193 3.86193 3.75 4 3.75V2.25Z" fill="#1D2129"/>
</svg>

<svg width="24" height="24" fill="none" xmlns="http://www.w3.org/2000/svg"><path d="M20.25 4.75a.75.75 0 0 0 1.5 0zM4 3.75h5.5v-1.5H4zM9.75 4v5.5h1.5V4zM9.5 9.75H4v1.5h5.5zM3.75 9.5V4h-1.5v5.5zM4 14.25h5.5v-1.5H4zm5.75.25V20h1.5v-5.5zm-.25 5.75H4v1.5h5.5zM3.75 20v-5.5h-1.5V20zM14.5 3.75H20v-1.5h-5.5zm5.5 6h-5.5v1.5H20zm-5.75-.25V4h-1.5v5.5zm6-5.5v.75h1.5V4zm0 4.75v.75h1.5v-.75zm-5.75 5.5H20v-1.5h-5.5zm5.75.25V20h1.5v-5.5zM20 20.25h-5.5v1.5H20zM14.25 20v-5.5h-1.5V20zm.25.25a.25.25 0 0 1-.25-.25h-1.5c0 .966.784 1.75 1.75 1.75zm5.75-.25a.25.25 0 0 1-.25.25v1.5A1.75 1.75 0 0 0 21.75 20zM20 14.25a.25.25 0 0 1 .25.25h1.5A1.75 1.75 0 0 0 20 12.75zm-5.5-1.5a1.75 1.75 0 0 0-1.75 1.75h1.5a.25.25 0 0 1 .25-.25zm0-3a.25.25 0 0 1-.25-.25h-1.5c0 .966.784 1.75 1.75 1.75zm5.5 1.5a1.75 1.75 0 0 0 1.75-1.75h-1.5a.25.25 0 0 1-.25.25zm0-7.5a.25.25 0 0 1 .25.25h1.5A1.75 1.75 0 0 0 20 2.25zm-5.5-1.5A1.75 1.75 0 0 0 12.75 4h1.5a.25.25 0 0 1 .25-.25zM4 20.25a.25.25 0 0 1-.25-.25h-1.5c0 .966.784 1.75 1.75 1.75zM9.75 20a.25.25 0 0 1-.25.25v1.5A1.75 1.75 0 0 0 11.25 20zm-.25-5.75a.25.25 0 0 1 .25.25h1.5a1.75 1.75 0 0 0-1.75-1.75zM4 12.75a1.75 1.75 0 0 0-1.75 1.75h1.5a.25.25 0 0 1 .25-.25zm0-3a.25.25 0 0 1-.25-.25h-1.5c0 .966.784 1.75 1.75 1.75zm5.75-.25a.25.25 0 0 1-.25.25v1.5a1.75 1.75 0 0 0 1.75-1.75zM9.5 3.75a.25.25 0 0 1 .25.25h1.5A1.75 1.75 0 0 0 9.5 2.25zM4 2.25A1.75 1.75 0 0 0 2.25 4h1.5A.25.25 0 0 1 4 3.75z" fill="#1D2129"/></svg>
